X:1
T:Coming Home
T:Coming Home
T:Bentley DeForest Ackley
T:Alfred Henry Ackley, 1917
T:Public Domain Courtesy of the Cyber Hymnal™
T:Public Domain Courtesy of the Cyber Hymnal™
C:Bentley DeForest Ackley
Z:Public Domain
Z:Courtesy of the Cyber Hymnal™
%%score 1 ( 2 3 )
L:1/8
Q:1/4=113
M:4/4
K:Bb
V:1 treble 
V:2 bass 
V:3 bass 
V:1
 [DF]2 [DF]2 [EG][DF][^C=E][DF] | [FB]2 [Fc]2 [Fd]4 | [Fd]2 [Ec]2 [Ec][D=B][Ec][Fd] | %3
w: 1.~Vile and sin- ful tho’ my|heart may be,|Full- y trust- ing Lord, I|
w: 2.~Like a fa- ther seeks a|way- ward child,|Thou hast sought me o’er the|
w: 3.~Plead- ing ten- der- ly, His|voice I hear,|Why should I re- fuse a|
w: 4.~Pre- cious blood of Je- sus,|may its flow|Cleanse from e- vil, wash me|
w: 5.~Tell my mo- ther what her|boy has done,|God has spok- en to her|
 [DB]2 [EG]2 [DF]4 | [DF]2 [DF]2 [EG][DF][^C=E][DF] | [FB]2 [Fc]2 [Fd]4 | [Fc]2 [FA]2 [=EA] [EG]3 | %7
w: come to Thee;|Thou hast pow’r to cleanse and|make me free,|I am com- ing|
w: des- ert wild,|Sick and help- less, by my|sin de- filed,|I am com- ing|
w: friend so dear?|He will take a- way my|guilt and fear,|I am com- ing|
w: white as snow;|There is hope a- lone in|Thee, I know,|I am com- ing|
w: way- ward son;|To be faith- ful till my|crown is won,|I am com- ing|
 [CF]6 ||"^Refrain" [B,D][CE] | [DF]6 [DB][Ec] | [Fd]6 [Ge]2 | [Fd][Ec][D=B][Ec] [Fd]2 [Ec]2 | %12
w: home.|||||
w: home.|||||
w: home.|Com- ing|home, com- ing|home, No|long- er in the path of|
w: home.|||||
w: home.|||||
 [DB]2 [EG]2 [DF][CE][B,D][CE] | [DF]6 [DB][Ec] | [Fd]6 [Ge]2 | [Fd][Ec][D=B][Ec] [Fd] [Ec]3 | %16
w: ||||
w: ||||
w: sin to roam; I’m com- ing|home, com- ing|home, Lord|Je- sus, I am com- ing|
w: ||||
w: ||||
 [DB]8 |] %17
w: |
w: |
w: home.|
w: |
w: |
V:2
 [B,,B,]2 [B,,B,]2 [B,,B,][B,,B,][B,,B,][B,,B,] | [D,B,]2 [F,A,]2 B,4 | %2
w: ~ ~ ~ ~ ~ ~|~ ~ ~|
 [F,A,]2 [F,A,]2 [F,A,][F,^G,][F,A,]F, | [B,,F,]2 [B,,B,]2 [B,,B,]4 | %4
w: ~ ~ ~ ~ ~ ~|~ ~ ~|
 [B,,B,]2 [B,,B,]2 [B,,B,][B,,B,][B,,B,][B,,B,] | [D,B,]2 [F,A,]2 B,4 | %6
w: ~ ~ ~ ~ ~ ~|~ ~ ~|
 [C,A,]2 [C,C]2 [C,C] (z D,=E,) | z G,A,G,F,E, || D,C, | (B,,[B,,B,])[D,B,][F,B,] B,2 z2 | %10
w: ~ ~ ~ * *||~ ~|~ * ~ I’m com-|
 z [B,,B,][D,B,][F,B,] B,2 B,2 | [F,B,][F,A,][F,^G,][F,A,] [F,A,]2 F,2 | %12
w: ing home, I’m com- ing|home, ~ ~ ~ ~ ~|
 [B,,F,]2 [B,,B,]2 [B,,B,]2 z2 | z [B,,B,][D,B,][F,B,] B,2 z2 | z [B,,B,][D,B,][F,B,] B,2 B,2 | %15
w: ~ ~ ~|~ ~ I’m com-|ing home, I’m com- ing|
 [F,A,][F,A,][F,^G,][F,A,] [F,A,] [F,A,]3 | [B,,F,B,]8 |] %17
w: home, * * * * *||
V:3
 x8 | x4 B,4 | x7 F, | x8 | x8 | x4 B,4 | x5 [C,B,]3 | [F,A,]6 || x2 | x4 B,2 x2 | x4 B,2 B,2 | %11
 x6 F,2 | x8 | x4 B,2 x2 | x4 B,2 B,2 | x8 | x8 |] %17

